X:1
Q:1/4=96
L:1/8
M:1/4
K:C clef=G2
V:1
%%MIDI program 2
^Dz/2G15/32|[^AG]15/8|[^AF]15/8|[c^G]15/8|
[^A^G]15/8|[^d-G-]2|[^dG]7/4z7/32|[^AG]15/8|
[c^G]z/2[^AG]15/32|[FD]15/8|[G^D]15/8|[^GF]15/8|
[^AD]15/8|[G-^D-]2|[G-^D-]2|[G-^D-]3/2[G^D]3/16z3/8|
^Dz/2G15/32|[^A^D]15/8|[^A^D]15/8|[cF]15/8|
[^AF]15/8|[^d^D]31/16|[^dF]15/8|[dF]15/8|
[^A^C]z/2[G^C]15/32|[FD]15/8|[^AF]15/8|[A-F-]2|
[AF]7/8z/8[cF]15/16|[^A-F-]2|[^A-F-]2|[^A-F-]3/2[^AF]3/16z3/8|
[FD]z/2[G^D]15/32|[^GF]15/8|[GE]15/8|[^GF]15/8|
[c^G]15/8|[^A-G-]2|[^AG]7/4z7/32|[G^D]15/8|
[FD]z/2[G^D]15/32|[^GF]15/8|[GE]15/8|[^GF]15/8|
[c^G]15/8|[^A-G-]2|[^A-G-]2|[^A-G-]3/2[^AG]3/16z3/8|
[^AG]z/2[^AG]15/32|[^dG]15/8|[dG]15/8|[c^G]15/8|
[^AG]15/8|[^G-^D-]2|[^G^D]31/32[^AG]15/16|[cA]15/8|
[c^F]z/2[c^F]15/32|[^A-G-]2|[^AG]7/8z/8[G^D]15/16|[^AD]15/8|
[D-^G]31/32[D-F]15/16|[^D-^A,-]2|[^D-^A,-]2|[^D-^A,-]3/2[^D^A,]3/16
L:1/8
M:1/4
K:C clef=F4
V:2
%%MIDI program 0
^D,z/2G,15/32|[^D^A,]15/8|[D^G,]15/8|[DF,]15/8|
[D^A,,]15/8|[^A,-^D,-]2|[^A,^D,]7/4z7/32|[^A,^D,]15/8|
[^D^D,]z/2[^D^D,]15/32|[^A,^G,]15/8|[^A,G,]15/8|[DF,]15/8|
[^A,^A,,]15/8|[^A,-^D,-]2|[^A,-^D,-]2|[^A,-^D,-]3/2[^A,^D,]3/16z3/8|
^D,z/2G,15/32|[G,^D,]15/8|[G,^D,]15/8|[F,D,]15/8|
[F,D,]15/8|[G,C,]31/16|[A,F,,]15/8|[^A,^A,,]15/8|
[^A,E,]z/2[^A,E,]15/32|[^A,F,]15/8|[DF,]15/8|[C-F,-]2|
[CF,]7/8z/8[^DF,]15/16|[D-^A,,-]2|[D-^A,,-]2|[D-^A,,-]3/2[D^A,,]3/16z3/8|
^A,z/2^A,15/32|[D^A,,]15/8|[^C^A,,]15/8|[D^A,,]15/8|
[D^A,,]15/8|[^D-^D,-]2|[^D^D,]7/4z7/32|[^A,^D,]15/8|
^A,z/2^A,15/32|[D^A,,]15/8|[^C^A,,]15/8|[D^A,,]15/8|
[D^A,,]15/8|[^D-^D,-]2|[^D-^D,-]2|[^D-^D,-]3/2[^D^D,]3/16z3/8|
[^D^D,]z/2[^DD,]15/32|[^DC,]15/8|[^D^A,,]15/8|[^D^G,,]15/8|
[^DC,]15/8|[C-^G,-]2|[C^G,]31/32[^DG,]15/16|[^D^F,]15/8|
[^DA,]z/2[^DA,]15/32|[^D-^A,-]2|[^D^A,]7/8z/8^A,15/16|[^A,^A,,]15/8|
[^A,^A,,]15/8|[G,-^D,-]2|[G,-^D,-]2|[G,-^D,-]3/2[G,^D,]3/16


